!!!SOCIAL_FUNCTION:	songs in honor of an individual
!!!PDT:	1918

Specific Region: Dakotas, Minnesota, Montana, Nebraska
!!!REG: Dakotas and Montana
!!!LING_GROUP: Siouan
!!!LANG: Tone
!!!OTL@ENG: The Tribe You Help
!!!ONM: No. 226
**kern
*Imale
*clefG2
*k[b-e-a-]
*M2/4
*MM66
12g
12g
12g
12g
12g
12g
=1||
*M3/4
12g
12g
12g
12e-
12c
12c
12c
12c
12c
=2||
*M2/4
12e-
8e-
24e-
4e-
=3
12g
12g
12g
12g
12g
12g
=4
12e-
12c
12c
12e-
12c
12c
=5
12B-
12A-
12A-
4A-
=6
*clefF4
12c
12c
12c
12c
8c
24B-
=7
4B-
16G
16G
16G
16G
=8||
*M3/4
12B-
12B-
12B-
16G
16B-
16G
16G
4G
=9||
*M2/4
12B-
[12G
12G]
[12G
12G]
12G
=10
12B-
12G
12G
4G
=11
2G
=12||
*M3/4
16e-
8.e-
16e-
8.e-
4e-
=13
8.g
16g
16e-
8.c
4c
=14
16e-
8.c
16c
8.c
4c
=15||
*M2/4
16d
8.c
16e-
8.c
=16
8B-
16G
16G
4B-
=17||
*M3/4
16B-
8.c
16B-
8.G
4G
=18||
*M2/4
16B-
8.G
8.G
16G
=19
16B-
8.G
4G
=20
2G
==
*-
!!!CNT: Native American -- Sioux
!!!MRD: 1911/07//-1914///
!!!OCL: Frances Densmore
!!!YOR1: Teton Sioux Music, Bulletin 61,
!!!YOR2: Bureau of American Ethnology, Smithsonian Institution
!!!PPR: Government Printing Office
!!!PPP: Washington, D.C.
!!!PDT: 1918///
!!!ENC: Craig Stuart Sapp
!!!END: 2002/03/25/
!!!EEV: 2002/03/31/
!!!AGN: Song in Honor of an Individual
!!!MPN@@SIO: Haka'la
!!!MPN@ENG: Youngest Child
!!!TXO: Teton Sioux
!!!MLC: Standing Rock Reservation, South Dakota, United States of America
!!!ARL: 45.9/-100.7#
!!!catalog: Catalogue No. 672
!!!PPG: 504
!!!EFL: 231/245
!!!VTS: 736075955
